packages/tokens/icons/heartFilled/size24Px.svg

<svg viewBox="0 0 24 24" fill="none" xmlns="http://www.w3.org/2000/svg" width="1em" height="1em"><path d="M20.4976 4.84511C18.3911 2.50154 14.852 2.37331 12.5931 4.55877L12 5.13233L11.4069 4.55877C9.14798 2.37331 5.60891 2.50154 3.50242 4.84511C1.39592 7.18868 1.51952 10.8613 3.7787 13.0459L3.79967 13.0662L11.3047 20.3273C11.6923 20.7024 12.3076 20.7024 12.6953 20.3273L20.2006 13.0662L20.2216 13.0459C22.4804 10.8613 22.604 7.18868 20.4976 4.84511Z" fill="currentColor"/></svg>

<svg xmlns="http://www.w3.org/2000/svg" fill="none" viewBox="0 0 24 24" width="1em" height="1em"><path fill="currentColor" d="M20.498 4.845c-2.107-2.343-5.646-2.472-7.905-.286L12 5.132l-.593-.573c-2.259-2.186-5.798-2.057-7.905.286-2.106 2.344-1.982 6.016.277 8.2l.02.021 7.506 7.261a1 1 0 0 0 1.39 0l7.506-7.26.02-.021c2.26-2.185 2.383-5.857.277-8.2Z"/></svg>
